X: 5038
T: Brian O'Lynn
R: jig
M: 6/8
K: Adorian
cBc AAG|EcB cde|dcA ~A2 G|Ade fed|
cBc AAG|EcB cde|dcA AGE|1 GED D3:|2 GED D2 f||
~g3 ged|cAB ~c2 d|.e2 a age|ed^c def|
~g3 ged|cAB cde|fed cAG|EAG A2 f|
~g3 ged|cAB ~c2 d|.e2 a age|ed^c def|
gba ged|cAB cde|fed cAG|EAG A3||

